!! 00000] TT[WS
!!!OTL: Song gege
!!!ARE: Asia, China,ÿShanxi Dingxiang
!! Ethnic Group: Han
!! WI, 139 (1)
!!!SCT: J0169
!!!YEM: Copyright 1995, estate of Helmut Schaffrath.
**kern
*ICvox
*Ivox
*M2/4
*k[b-]
*F:
{16cc
16cc
16dd
16ff
4g
=1
16cc
16cc
16dd
16ff
4g
=2
8cc
16a
16cc
8dd
8ff
=3
16ff
16dd
16cc
16a
8.g
16a}
=4
{8c
16c
16d
8g
16g
16a
=5
8c
16c
16d
4f
=6
8d
16d
16f
16d
16c
16B-
16A
=7
2c}
==
!!!AGN: Xiaodiao. Qingge
!!!ONB: ESAC (Essen Associative Code) Database: CHINA
!!!AMT: simple duple
!!!AIN: vox
!!!EED: Helmut Schaffrath
!!!EEV: 1.0
*-
